X:0768
T:Kempshot Hunt.
M:2/4
L:1/8
Q:1/4=128
I: :: :: :|
N:no barline printed between 7 and 8
Z:Jack Campin * www.campin.me.uk * 2009
K:G
e|  d2    Bd  |BA/G/ Bd|  Bd   (c/B/A/)G/|cA`Ae |  d2    Bd  |BA/G/ Bd|Bdce|dGG:|
A|(3GAG (.d.B)|e>cd>B  |(3GAG (.d.B)     |c>AA>B|(3GAG (.d.B)|ecdc    |Bdce|dGG:|
d|  g2    dB  |g2 dB   |  g2    dB       |cA`Af |  g2    dB  |g2    dB|Bdce|dGG:|

